24x24/apps/appimagekit-makagiga.svg

<svg xmlns="http://www.w3.org/2000/svg" width="24" height="24" version="1.1">
 <rect style="opacity:0.2" width="20" height="20" x="1" y="2.5" rx="1" ry="1"/>
 <path style="fill:#eb643d" d="m 2,2 h 18 c 0.554,0 1,0.446 1,1 v 12.197183 l -2.665996,4.847083 c -0.266991,0.485419 -0.999366,1.208375 -1.55332,1.201207 L 5.1187123,21.094567 C 4.5647586,21.087399 3.7070525,20.211832 3.5150905,19.692153 L 1,12.8833 V 3 C 1,2.446 1.446,2 2,2 Z"/>
 <path style="fill:#7cc42e" d="M 2,2 C 1.919355,2 1.8419162,2.010512 1.7675781,2.029297 c -0.00476,0.00113 -0.00893,0.00368 -0.013672,0.00488 -0.07175,0.019264 -0.1409952,0.04499 -0.2060547,0.078125 L 14.264649,18.834961 17.971679,17.057617 6.0527345,2 Z M 10.780274,2 21,15.510742 V 8.4501955 L 15.339844,2 Z"/>
 <path style="fill:#2be0de" d="M 4.859375,10.230469 1,12.671875 V 21 c 0,0.554 0.446,1 1,1 h 18 c 0.554,0 1,-0.446 1,-1 v -6.779 z"/>
 <path style="opacity:0.2" d="m 6.8583985,9.495647 a 1.9095477,2.3115578 23.444494 0 0 -1.9746095,1.492188 1.9095477,2.3115578 23.444494 0 0 0.833008,2.880859 1.9095477,2.3115578 23.444494 0 0 2.461914,-0.969727 2.472751,2.8762293 56.175374 0 0 1.323242,2.949219 2.472751,2.8762293 56.175374 0 0 3.326172,-0.99414 2.472751,2.8762293 22.173135 0 0 0.01367,0.460937 2.472751,2.8762293 22.173135 0 0 2.823242,2.112305 2.472751,2.8762293 22.173135 0 0 2.041015,-1.976562 1.9095477,2.3115578 23.444494 0 0 1.027344,1.417968 1.9095477,2.3115578 23.444494 0 0 2.671875,-1.361328 1.9095477,2.3115578 23.444494 0 0 -0.832031,-2.879883 1.9095477,2.3115578 23.444494 0 0 -2.671875,1.360352 1.9095477,2.3115578 23.444494 0 0 -0.02832,0.07031 2.472751,2.8762293 22.173135 0 0 -0.001,-0.01758 2.472751,2.8762293 22.173135 0 0 -2.824219,-2.111328 2.472751,2.8762293 22.173135 0 0 -1.511719,1.012695 A 2.472751,2.8762293 56.175374 0 0 12.065404,10.943887 2.472751,2.8762293 56.175374 0 0 8.462865,12.311075 1.9095477,2.3115578 23.444494 0 0 7.5556385,9.627481 1.9095477,2.3115578 23.444494 0 0 6.858373,9.495645 Z"/>
 <ellipse style="fill:#f4f4f7" cx="10.563" cy="7.679" rx="1.91" ry="2.312" transform="rotate(23.444493)"/>
 <ellipse style="fill:#f4f4f7" cx="15.676" cy="8.563" rx="2.595" ry="2.767" transform="matrix(0.94096018,0.33851726,-0.4632675,0.8862185,0,0)"/>
 <ellipse style="fill:#f4f4f7" cx="13.808" cy="17.679" rx="2.595" ry="2.767" transform="matrix(0.9693782,-0.24557262,0.11153978,0.99375997,0,0)"/>
 <ellipse style="fill:#f4f4f7" cx="23.699" cy="5.252" rx="1.91" ry="2.312" transform="rotate(23.444493)"/>
 <path style="fill:#ffd520" d="M 14.049805,5.0542892 C 9.4101625,6.3361391 9.7332285,8.0737455 5.6589945,8.020508 4.7631395,8.020607 3.9646455,8.4174625 3.4446175,9.0371415 2.8451899,9.6983295 3.036314,10.600956 3.1080056,11.239612 c 0.2214906,0.09087 0.9711684,-0.656845 1.1963339,-0.571224 3.610001,1.37273 9.1201085,2.819659 13.3776605,3.267112 1.880173,0.1976 3.318,-0.12886 4.537726,-0.413039 0.46446,-0.483183 0.750082,-1.12612 0.75,-1.833984 C 22.969899,10.189821 21.698898,8.974783 20.130859,8.9746095 17.914134,8.577144 17.459014,5.2001058 14.049805,5.0542892 Z"/>
 <path style="fill:#5e5e5e" d="m 11.489453,7.7500165 c -0.1285,0.0015 -0.231308,0.107459 -0.229304,0.2363165 0.07796,1.090035 -0.474253,1.019794 -1.016007,1.019794 -0.0078,-4e-4 -0.01572,-4e-4 -0.02356,0 -0.3093643,0.015755 -0.2857993,0.4811155 0.02356,0.4653615 0.537923,0 1.016007,0.01099 1.016007,1.0425175 -0.0045,0.314659 0.468484,0.314659 0.464046,0 -0.08,-1.1153105 0.491792,-1.0425175 1.040479,-1.0425175 0.313769,0.00445 0.313769,-0.4698115 0,-0.4653615 -0.786637,0 -1.040479,0.01831 -1.040479,-1.019794 0.0021,-0.130994 -0.104112,-0.2378545 -0.234742,-0.2363165 z"/>
 <path style="opacity:0.2;fill:#f4f4f7" d="M 2,2 C 1.446,2 1,2.446 1,3 v 0.5 c 0,-0.554 0.446,-1 1,-1 h 18 c 0.554,0 1,0.446 1,1 V 3 C 21,2.446 20.554,2 20,2 Z"/>
 <path style="fill:#5e5e5e" d="m 15.489449,7.7500165 c -0.1285,0.0015 -0.231308,0.107459 -0.229304,0.2363165 0.07796,1.090035 -0.474254,1.019794 -1.016007,1.019794 -0.0078,-4e-4 -0.01572,-4e-4 -0.02356,0 -0.309364,0.015755 -0.2858,0.4811155 0.02356,0.4653615 0.537923,0 1.016007,0.01099 1.016007,1.0425175 -0.0045,0.314659 0.468484,0.314659 0.464046,0 -0.08,-1.1153105 0.491792,-1.0425175 1.040478,-1.0425175 0.31377,0.00445 0.31377,-0.4698115 0,-0.4653615 -0.786637,0 -1.040478,0.01831 -1.040478,-1.019794 0.0021,-0.130994 -0.104112,-0.2378545 -0.234742,-0.2363165 z"/>
 <path style="opacity:0.1" d="M 5.760742,14.237305 A 1.0001,1.0001 0 0 0 5.0009765,15.883789 L 10.03418,22 h 2.589844 L 6.544922,14.612305 a 1.0001,1.0001 0 0 0 -0.78418,-0.375 z m 12.329102,2.739257 a 1.0001,1.0001 0 0 0 -0.759766,1.646485 l 2.770508,3.367187 C 20.606324,21.939451 21,21.519557 21,21 V 19.936523 L 18.874023,17.352539 A 1.0001,1.0001 0 0 0 18.089844,16.976562 Z M 3.1728515,17.357422 A 1.0001,1.0001 0 0 0 2.413086,19.003906 L 4.8779295,22 H 7.46875 L 3.9580078,17.733398 A 1.0001,1.0001 0 0 0 3.1728515,17.357422 Z m 10.1982425,0 a 1.0001,1.0001 0 0 0 -0.759766,1.646484 L 15.076172,22 h 2.589843 l -3.510741,-4.266602 a 1.0001,1.0001 0 0 0 -0.78418,-0.375976 z"/>
 <path style="opacity:0.2;fill:#f4f4f7" d="M 14.049805,5.054 C 9.4101625,6.3358501 9.7334135,8.0737455 5.6591795,8.020508 4.7633245,8.020607 3.964364,8.4174305 3.444336,9.0371095 3.0474479,9.4748895 3.0059671,10.01481 3.038086,10.517578 3.0720675,10.172697 3.1779177,9.8309775 3.444336,9.5371095 3.964364,8.9174305 4.7633245,8.520607 5.6591795,8.520508 c 4.074234,0.053237 3.750983,-1.6846579 8.3906255,-2.9665079 3.409209,0.145817 3.864329,3.5231439 6.081054,3.9206094 1.483493,1.64e-4 2.699328,1.0882535 2.826172,2.4746095 0.0086,-0.08565 0.01271,-0.172916 0.0127,-0.260742 C 22.969899,10.189821 21.698897,8.974783 20.130859,8.9746095 17.914134,8.577144 17.459013,5.1998166 14.049805,5.054 Z"/>
</svg>

<svg xmlns="http://www.w3.org/2000/svg" width="24" height="24"><rect style="opacity:.2" width="20" height="20" x="1" y="2.5" rx="1" ry="1"/><path style="fill:#eb643d" d="M2 2h18c.554 0 1 .446 1 1v12.197l-2.666 4.847c-.267.486-1 1.209-1.553 1.201l-11.662-.15c-.554-.008-1.412-.883-1.604-1.403L1 12.883V3c0-.554.446-1 1-1z"/><path style="fill:#7cc42e" d="M2 2c-.08 0-.158.01-.232.03-.005 0-.01.003-.014.004-.072.02-.141.045-.206.078l12.717 16.723 3.707-1.777L6.052 2zm8.78 0L21 15.51V8.45L15.34 2z"/><path style="fill:#2be0de" d="M4.86 10.23 1 12.672V21c0 .554.446 1 1 1h18c.554 0 1-.446 1-1v-6.779z"/><path style="opacity:.2" d="M6.858 9.496a1.91 2.312 23.444 0 0-1.974 1.492 1.91 2.312 23.444 0 0 .833 2.88 1.91 2.312 23.444 0 0 2.462-.969 2.473 2.876 56.175 0 0 1.323 2.95 2.473 2.876 56.175 0 0 3.326-.995 2.473 2.876 22.173 0 0 .014.461 2.473 2.876 22.173 0 0 2.823 2.112 2.473 2.876 22.173 0 0 2.041-1.976 1.91 2.312 23.444 0 0 1.027 1.418 1.91 2.312 23.444 0 0 2.672-1.362 1.91 2.312 23.444 0 0-.832-2.88 1.91 2.312 23.444 0 0-2.672 1.36 1.91 2.312 23.444 0 0-.028.071 2.473 2.876 22.173 0 0-.001-.017 2.473 2.876 22.173 0 0-2.824-2.112 2.473 2.876 22.173 0 0-1.512 1.013 2.473 2.876 56.175 0 0-1.47-1.998 2.473 2.876 56.175 0 0-3.603 1.367 1.91 2.312 23.444 0 0-.907-2.684 1.91 2.312 23.444 0 0-.698-.131z"/><ellipse style="fill:#f4f4f7" cx="10.563" cy="7.679" rx="1.91" ry="2.312" transform="rotate(23.444)"/><ellipse style="fill:#f4f4f7" cx="15.676" cy="8.563" rx="2.595" ry="2.767" transform="matrix(.94096 .33852 -.46327 .88622 0 0)"/><ellipse style="fill:#f4f4f7" cx="13.808" cy="17.679" rx="2.595" ry="2.767" transform="matrix(.96938 -.24557 .11154 .99376 0 0)"/><ellipse style="fill:#f4f4f7" cx="23.699" cy="5.252" rx="1.91" ry="2.312" transform="rotate(23.444)"/><path style="fill:#ffd520" d="M14.05 5.054c-4.64 1.282-4.317 3.02-8.391 2.967-.896 0-1.694.396-2.214 1.016-.6.661-.409 1.564-.337 2.203.221.09.971-.657 1.196-.572 3.61 1.373 9.12 2.82 13.378 3.268 1.88.197 3.318-.13 4.538-.414.464-.483.75-1.126.75-1.834 0-1.498-1.271-2.713-2.84-2.713-2.216-.398-2.671-3.775-6.08-3.92z"/><path style="fill:#5e5e5e" d="M11.49 7.75a.232.232 0 0 0-.23.236c.078 1.09-.474 1.02-1.016 1.02h-.023c-.31.016-.286.481.023.465.538 0 1.016.011 1.016 1.043-.004.315.469.315.464 0-.08-1.115.492-1.043 1.04-1.043.314.005.314-.47 0-.465-.786 0-1.04.018-1.04-1.02a.232.232 0 0 0-.235-.236z"/><path style="opacity:.2;fill:#f4f4f7" d="M2 2c-.554 0-1 .446-1 1v.5c0-.554.446-1 1-1h18c.554 0 1 .446 1 1V3c0-.554-.446-1-1-1z"/><path style="fill:#5e5e5e" d="M15.49 7.75a.232.232 0 0 0-.23.236c.078 1.09-.474 1.02-1.016 1.02h-.023c-.31.016-.286.481.023.465.538 0 1.016.011 1.016 1.043-.004.315.469.315.464 0-.08-1.115.492-1.043 1.04-1.043.314.005.314-.47 0-.465-.786 0-1.04.018-1.04-1.02a.232.232 0 0 0-.235-.236z"/><path style="opacity:.1" d="M5.76 14.237a1 1 0 0 0-.759 1.647L10.034 22h2.59l-6.08-7.388a1 1 0 0 0-.783-.375zm12.33 2.74a1 1 0 0 0-.76 1.646l2.77 3.367c.506-.05.9-.47.9-.99v-1.063l-2.126-2.584a1 1 0 0 0-.784-.376zm-14.917.38a1 1 0 0 0-.76 1.647L4.878 22h2.59l-3.51-4.267a1 1 0 0 0-.785-.376zm10.198 0a1 1 0 0 0-.76 1.647L15.076 22h2.59l-3.51-4.267a1 1 0 0 0-.785-.376z"/><path style="opacity:.2;fill:#f4f4f7" d="M14.05 5.054c-4.64 1.282-4.317 3.02-8.39 2.967-.897 0-1.696.396-2.216 1.016-.397.438-.438.978-.406 1.48.034-.344.14-.686.406-.98A2.883 2.883 0 0 1 5.66 8.521c4.074.053 3.751-1.685 8.39-2.967 3.41.146 3.865 3.523 6.082 3.92 1.483 0 2.7 1.089 2.826 2.475a2.61 2.61 0 0 0 .013-.26c0-1.5-1.271-2.714-2.84-2.714-2.216-.398-2.671-3.775-6.08-3.921z"/></svg>
